X:709
%%etbk:tnset id:425,pos:2,rep:3x,ant:
%%etbk:wsite https://thesession.org/tunes/3806
%%etbk:video src:ytube,cde:SJAgv53Q95Q,desc:3 min
%%etbk:pldat 2016-07-05T17:22,2016-07-05T17:18,2016-04-20T10:58,2015-12-13T15:28,2015-08-15T16:55,2015-07-17T16:12,2015-06-01T18:06,2015-05-20T16:29,2015-04-29T18:03
T: The First Month Of Spring
Z: Piano Box Version by Martin Fleischmann
H: Created 2015-04-29 /  Last Modified 2015-08-15
R: reel
M: 4/4
L: 1/8
K: Dmaj
"D"!3!d!2!B~B2 !1!A2!2!F!3!A|!1!D2!2!F!1!A !3!d!4!e!5!fe|!3!dB~B2 !1!A2!2!F!1!A|"A"B2!5!e!1!d egfe|
"D"dB~B2 BAFB|~A3B !1!d!2!e!3!fg|afge fdef|dBAB "A"~e3!2!f|
"D"!4!af~f2 afbf|!4!af~f2 afef|!4!af~f2 ~a3f|"A"e!5!a!3!fe !1!d!2!B!1!A2|
"D"af~f2 afbf|af~f2 afea|fa~a2 fb~b2|!5!ba!3!fe "A"!3!~f3e|


